X: 1006
T: Drill: VI Zigzag
C: Rodriguez
M: 3/4
L: 1/4
%%staves (S1V1 S1V2) | (S2V1 S2V2)
V: S1V1 clef=treble
V: S1V2
V: S2V1 clef=bass
V: S2V2
K: C
[V: S1V1] [Q:1/4=80] C D E | F E D | E F G | A G F | G A B | c B A | B A G | F E D | C3 |]
[V: S1V2] A, B, C | D C B, | C D E | F E D | E F G | A G F | G F E | D C B, | A,3 |]
[V: S2V1] F, G, A, | B, A, G, | A, B, C | D C B, | C D E | F E D | E D C | B, A, G, | F,3 |]
[V: S2V2] D, E, F, | G, F, E, | F, G, A, | B, A, G, | A, B, C | D C B, | C B, A, | G, F, E, | D,3 |]

